papirus/48x48/apps/chrome-bikioccmkafdpakkkcpdbppfkghcmihk-Default.svg

<svg height="48" viewBox="0 0 48 48.000001" width="48" xmlns="http://www.w3.org/2000/svg"><path d="m23.994141 4c-.569981.00422-1.139512.031591-1.707032.082031-.411401.03259-.814928.085152-1.21875.140625-.214049.027311-.427619.057914-.640625.091797-.575432.096959-1.140262.2194674-1.697265.3613281-.03648.00902-.07294.018131-.109375.027344-8.442486 2.1984905-14.621094 9.4223239-14.621094 17.9960939.000101.06216.0051.123462.00586.185547-.0020765.038406-.0040296.076817-.00586.115234.00988 5.886983 3.0889636 11.409748 8 15v6l5.304688-3.121094c2.148068.733953 4.412548 1.113128 6.695312 1.121094 10.639034-.01246 19.405682-7.935406 19.949219-18.029297.01591-.221134.02754-.442861.03516-.666015.006062-.101521.011271-.203087.015621-.304688-.0012-.04102-.0025-.08204-.0039-.123047.000589-.05947.0039-.118134.0039-.177734 0-9.684128-7.876915-17.6661036-18.003906-18.6035159-.553276-.0486408-1.108445-.0753567-1.664063-.0800781-.112331-.0017339-.221202-.015625-.333984-.015625z" fill="#2090ea"/><path d="m23.994141 4a20 19 0 0 0 -1.707032.0820312c-.411401.0325899-.814928.0851525-1.21875.140625a20 19 0 0 0 -.640625.0917969c-.575432.096959-1.140262.2194674-1.697265.3613281a20 19 0 0 0 -.109375.0273438c-8.442486 2.1984906-14.621094 9.422324-14.621094 17.996094.000101.062161.0050982.123462.0058594.185547a20 19 0 0 0 -.0058594.115234 20 19 0 0 0  .0175781.318359c.1811701-8.404972 6.2872829-15.4496207 14.6035159-17.615234a20 19 0 0 1  .109375-.0273438c.557003-.1418606 1.121833-.2643691 1.697265-.3613281a20 19 0 0 1  .640625-.0917969c.403822-.0554729.807349-.108035 1.21875-.140625a20 19 0 0 1 1.707032-.0820312h.003906c.112782 0 .221653.0138911.333984.015625a20 19 0 0 1 1.664063.0800781c10.003028.9259376 17.796681 8.7283189 17.986328 18.2519529.000524-.01438.001462-.028577.001953-.042968a20 19 0 0 0  .015625-.304688 20 19 0 0 0 -.003906-.123047c.000595-.05947.003906-.118134.003906-.177734 0-9.684128-7.876915-17.6661036-18.003906-18.6035159a20 19 0 0 0 -1.664063-.0800781c-.112331-.0017339-.221202-.015625-.333984-.015625z" fill="#fff" opacity=".2"/><path d="m43.982422 22.347656c-.007614.208594-.018319.416174-.033203.623047-.543537 10.093891-9.310185 18.016837-19.949219 18.029297-2.282764-.007966-4.547244-.387141-6.695312-1.121094l-5.304688 3.121094v1l5.304688-3.121094c2.148068.733953 4.412548 1.113128 6.695312 1.121094 10.639034-.01246 19.405682-7.935406 19.949219-18.029297.01591-.221134.027536-.442862.035156-.666015.006062-.101521.011275-.203087.015625-.304688-.0012-.04102-.002506-.08204-.003906-.123047.000589-.05947.003906-.118134.003906-.177734 0-.118542-.015228-.233541-.017578-.351563zm-39.9687501.052735c-.0016949.100221-.0136719.198229-.0136719.298828.000101.06216.0050994.123462.0058594.185547-.0020765.038406-.004029.076817-.0058594.115234.00988 5.886983 3.0889636 11.409748 8 15v-1c-4.7992717-3.508546-7.8407814-8.863596-7.9863281-14.599609z" opacity=".3"/><ellipse cx="24" cy="24" fill="none" opacity=".2" rx="14" ry="13" stroke="#000" stroke-dasharray="8 4" stroke-width="4"/><ellipse cx="24" cy="23" fill="none" rx="14" ry="13" stroke="#fff" stroke-dasharray="8 4" stroke-width="4"/></svg>

<?xml version="1.0" encoding="UTF-8" standalone="no"?>
<svg
   xmlns:dc="http://purl.org/dc/elements/1.1/"
   xmlns:cc="http://creativecommons.org/ns#"
   xmlns:rdf="http://www.w3.org/1999/02/22-rdf-syntax-ns#"
   xmlns:svg="http://www.w3.org/2000/svg"
   xmlns="http://www.w3.org/2000/svg"
   id="svg2"
   viewBox="0 0 48 48.000001"
   version="1.1"
   width="48"
   height="48">
  <metadata
     id="metadata51">
    <rdf:RDF>
      <cc:Work
         rdf:about="">
        <dc:format>image/svg+xml</dc:format>
        <dc:type
           rdf:resource="http://purl.org/dc/dcmitype/StillImage" />
        <dc:title></dc:title>
      </cc:Work>
    </rdf:RDF>
  </metadata>
  <defs
     id="defs4" />
  <path
     id="path37"
     d="m 23.994141,4 c -0.569981,0.00422 -1.139512,0.031591 -1.707032,0.082031 -0.411401,0.03259 -0.814928,0.085152 -1.21875,0.140625 -0.214049,0.027311 -0.427619,0.057914 -0.640625,0.091797 -0.575432,0.096959 -1.140262,0.2194674 -1.697265,0.3613281 -0.03648,0.00902 -0.07294,0.018131 -0.109375,0.027344 C 10.178608,6.9016156 4,14.125449 4,22.699219 c 1.01e-4,0.06216 0.0051,0.123462 0.00586,0.185547 C 4.0037835,22.923172 4.0018304,22.961583 4,23 c 0.00988,5.886983 3.0889636,11.409748 8,15 l 0,6 5.304688,-3.121094 C 19.452756,41.612859 21.717236,41.992034 24,42 34.639034,41.98754 43.405682,34.064594 43.949219,23.970703 c 0.01591,-0.221134 0.02754,-0.442861 0.03516,-0.666015 C 43.990441,23.203167 43.99565,23.101601 44,23 43.9988,22.95898 43.9975,22.91796 43.9961,22.876953 43.996689,22.817483 44,22.758819 44,22.699219 44,13.015091 36.123085,5.0331154 25.996094,4.0957031 25.442818,4.0470623 24.887649,4.0203464 24.332031,4.015625 24.2197,4.0138911 24.110829,4 23.998047,4 Z"
     style="fill:#2090ea;fill-opacity:1" />
  <path
     id="path4199"
     d="M 23.994141 4 A 20 19 0 0 0 22.287109 4.0820312 C 21.875708 4.1146211 21.472181 4.1671837 21.068359 4.2226562 A 20 19 0 0 0 20.427734 4.3144531 C 19.852302 4.4114121 19.287472 4.5339205 18.730469 4.6757812 A 20 19 0 0 0 18.621094 4.703125 C 10.178608 6.9016156 4 14.125449 4 22.699219 C 4.000101 22.76138 4.0050982 22.822681 4.0058594 22.884766 A 20 19 0 0 0 4 23 A 20 19 0 0 0 4.0175781 23.318359 C 4.1987482 14.913387 10.304861 7.8687383 18.621094 5.703125 A 20 19 0 0 1 18.730469 5.6757812 C 19.287472 5.5339206 19.852302 5.4114121 20.427734 5.3144531 A 20 19 0 0 1 21.068359 5.2226562 C 21.472181 5.1671833 21.875708 5.1146212 22.287109 5.0820312 A 20 19 0 0 1 23.994141 5 L 23.998047 5 C 24.110829 5 24.2197 5.0138911 24.332031 5.015625 A 20 19 0 0 1 25.996094 5.0957031 C 35.999122 6.0216407 43.792775 13.824022 43.982422 23.347656 C 43.982946 23.333276 43.983884 23.319079 43.984375 23.304688 A 20 19 0 0 0 44 23 A 20 19 0 0 0 43.996094 22.876953 C 43.996689 22.817483 44 22.758819 44 22.699219 C 44 13.015091 36.123085 5.0331154 25.996094 4.0957031 A 20 19 0 0 0 24.332031 4.015625 C 24.2197 4.0138911 24.110829 4 23.998047 4 L 23.994141 4 z "
     style="fill:#ffffff;fill-opacity:1;opacity:0.2" />
  <path
     id="path4139"
     d="M 43.982422 22.347656 C 43.974808 22.55625 43.964103 22.76383 43.949219 22.970703 C 43.405682 33.064594 34.639034 40.98754 24 41 C 21.717236 40.992034 19.452756 40.612859 17.304688 39.878906 L 12 43 L 12 44 L 17.304688 40.878906 C 19.452756 41.612859 21.717236 41.992034 24 42 C 34.639034 41.98754 43.405682 34.064594 43.949219 23.970703 C 43.965129 23.749569 43.976755 23.527841 43.984375 23.304688 C 43.990437 23.203167 43.99565 23.101601 44 23 C 43.9988 22.95898 43.997494 22.91796 43.996094 22.876953 C 43.996683 22.817483 44 22.758819 44 22.699219 C 44 22.580677 43.984772 22.465678 43.982422 22.347656 z M 4.0136719 22.400391 C 4.011977 22.500612 4 22.59862 4 22.699219 C 4.000101 22.761379 4.0050994 22.822681 4.0058594 22.884766 C 4.0037829 22.923172 4.0018304 22.961583 4 23 C 4.00988 28.886983 7.0889636 34.409748 12 38 L 12 37 C 7.2007283 33.491454 4.1592186 28.136404 4.0136719 22.400391 z "
     style="fill:#000000;fill-opacity:1;opacity:0.3" />
  <ellipse
     style="opacity:0.2;fill:none;fill-opacity:1;stroke:#000000;stroke-width:4;stroke-linecap:butt;stroke-linejoin:miter;stroke-miterlimit:4;stroke-dasharray:8, 4;stroke-dashoffset:0;stroke-opacity:1"
     id="ellipse4140"
     cx="24"
     cy="24"
     rx="14"
     ry="13" />
  <ellipse
     ry="13"
     rx="14"
     cy="23"
     cx="24"
     id="path4138"
     style="opacity:1;fill:none;fill-opacity:1;stroke:#ffffff;stroke-width:4;stroke-linecap:butt;stroke-linejoin:miter;stroke-miterlimit:4;stroke-dasharray:8,4;stroke-opacity:1;stroke-dashoffset:0" />
</svg>
